img/svg/tel.svg

<svg width="16" height="18" viewBox="0 0 16 18" fill="none" xmlns="http://www.w3.org/2000/svg">
<path d="M14.1861 7.57057H14.1453V6.56995C14.1453 3.35568 11.5396 0.75 8.32534 0.75C5.11103 0.75 2.50539 3.35568 2.50539 6.56995V7.57057H2.26035C1.36182 7.57057 0.667523 8.36697 0.667523 9.28594V11.8385C0.644892 12.7292 1.34861 13.4696 2.23928 13.4922C2.24632 13.4924 2.25332 13.4925 2.26035 13.4926H3.77149C3.98553 13.4826 4.1509 13.3009 4.14082 13.0868C4.14047 13.0791 4.13988 13.0714 4.13906 13.0638V8.06065C4.13906 7.81561 3.99612 7.57054 3.77149 7.57054H3.32222V6.56991C3.32222 3.80679 5.56221 1.5668 8.32534 1.5668C11.0885 1.5668 13.3285 3.80679 13.3285 6.56991V7.57054H12.8792C12.6546 7.57054 12.5116 7.81557 12.5116 8.06065V13.0638C12.4888 13.2768 12.6431 13.468 12.8561 13.4908C12.8638 13.4916 12.8715 13.4922 12.8792 13.4926H13.3489L13.308 13.5538C12.6952 14.3682 11.7337 14.8452 10.7146 14.8403C10.4915 13.7463 9.42368 13.0403 8.32968 13.2635C7.39413 13.4542 6.71961 14.2736 6.71207 15.2284C6.72325 16.3482 7.63428 17.2501 8.75416 17.25C9.30853 17.241 9.83694 17.0135 10.2244 16.617C10.4859 16.3492 10.6572 16.0065 10.7146 15.6367C11.9908 15.6416 13.1944 15.0435 13.9615 14.0235L14.3495 13.4517C15.2276 13.3904 15.7789 12.8391 15.7789 12.0427V9.49005C15.779 8.61204 15.1255 7.57057 14.1861 7.57057ZM3.32222 12.6758H2.26035C1.82062 12.6651 1.47283 12.3 1.48354 11.8602C1.48373 11.853 1.48401 11.8458 1.48436 11.8385V9.2859C1.48436 8.81623 1.81109 8.38737 2.26035 8.38737H3.32222V12.6758ZM9.63228 16.0452C9.40597 16.2906 9.088 16.4311 8.7542 16.4332C8.0898 16.4227 7.55064 15.8925 7.52894 15.2284C7.52867 14.563 8.06787 14.0233 8.73329 14.0231C9.3987 14.0228 9.93833 14.562 9.93861 15.2274C9.93861 15.2277 9.93861 15.2281 9.93861 15.2284C9.95561 15.5316 9.84445 15.828 9.63228 16.0452ZM14.9621 12.0427C14.9621 12.5941 14.4312 12.6758 14.1861 12.6758H13.3285V8.38741H14.1861C14.6354 8.38741 14.9621 9.02046 14.9621 9.49013V12.0427Z" fill="#342834"/>
</svg>

<svg width="16" height="18" viewBox="0 0 16 18" fill="none" xmlns="http://www.w3.org/2000/svg"><path d="M14.186 7.57h-.04v-1a5.82 5.82 0 00-11.64 0v1H2.26c-.898 0-1.592.797-1.592 1.716v2.553a1.613 1.613 0 001.592 1.654h1.511a.388.388 0 00.368-.43V8.062c0-.245-.143-.49-.368-.49h-.449V6.57a5.003 5.003 0 0110.007 0v1h-.45c-.224 0-.367.246-.367.49v5.004a.388.388 0 00.367.429h.47l-.041.06a3.226 3.226 0 01-2.593 1.287 2.022 2.022 0 00-4.003.388 2.042 2.042 0 002.042 2.022 2.103 2.103 0 001.47-.633 1.79 1.79 0 00.49-.98 4.043 4.043 0 003.247-1.614l.389-.571c.878-.062 1.429-.613 1.429-1.41V9.49c0-.878-.653-1.92-1.593-1.92zM3.322 12.677H2.26a.796.796 0 01-.776-.838V9.287c0-.47.327-.899.776-.899h1.062v4.289zm6.31 3.37a1.205 1.205 0 01-.878.387 1.246 1.246 0 01-1.225-1.205 1.205 1.205 0 112.41 0c.017.304-.095.6-.307.817zm5.33-4.003c0 .551-.53.633-.776.633h-.857v-4.29h.857c.45 0 .776.633.776 1.103v2.553z" fill="#342834"/></svg>
